X: 5220
T: Brocca, The
R: reel
M: 4/4
K: Dmajor
A,2 A,B, G,2 B,G,|A,2 CE ABAG|E3 E F2DF|GBBc BAGF|
EA,CE DG,B,D|A,B, CE ABAG|E2FD G3E|DB,G,B, A,B,CD:|
Addc d2 fd|~d2ed cdec|dFFE DdAF|E2 E2 EDCE|
Addc d2 fd|~d2ed cdec|d2 =Fd =cAGE|ED=CE DEFG|
Addc d2 ad|~d2ad cdec|dFFE DdAF|G2FG EA,CE|
Addc d2 fd|~d2ed cdec|d2 =Fd =cAGE|ED=CE DFGF|

